packages/kaspersky-hexa-ui-icons/src/iconsSVGs/32/ShieldWarningSolid.svg

<svg width="32" height="32" viewBox="0 0 32 32" fill="none" xmlns="http://www.w3.org/2000/svg">
<g clip-path="url(#clip0_7175_1766)">
<path fill-rule="evenodd" clip-rule="evenodd" d="M4.6921 5.44024L13.9556 0.484781C15.2426 -0.161593 16.7574 -0.161594 18.0444 0.48478L27.3079 5.44024C28.0823 5.82915 28.5714 6.62416 28.5714 7.4938V16.5555C28.5714 18.1855 28.1911 19.9786 27.4286 21.7143C24.5714 28 18.2857 32 16 32C13.7143 32 7.35782 28 4.57145 21.7143C3.7832 19.9361 3.42859 18.1031 3.42859 16.4635V7.4938C3.42859 6.62416 3.91774 5.82915 4.6921 5.44024ZM15.9999 9.28552C16.5522 9.28552 16.9999 9.73324 16.9999 10.2855V17.1427C16.9999 17.695 16.5522 18.1427 15.9999 18.1427C15.4476 18.1427 14.9999 17.695 14.9999 17.1427V10.2855C14.9999 9.73324 15.4476 9.28552 15.9999 9.28552ZM17.1428 21.714C17.1428 22.3452 16.6311 22.8569 15.9999 22.8569C15.3687 22.8569 14.8571 22.3452 14.8571 21.714C14.8571 21.0828 15.3687 20.5712 15.9999 20.5712C16.6311 20.5712 17.1428 21.0828 17.1428 21.714Z" fill="black"/>
</g>
<defs>
<clipPath id="clip0_7175_1766">
<rect width="32" height="32" fill="white"/>
</clipPath>
</defs>
</svg>

<svg xmlns="http://www.w3.org/2000/svg" width="32" height="32" fill="none" viewBox="0 0 32 32"><path fill="#000" fill-rule="evenodd" d="M4.6922 5.4402 13.9557.4848a4.553 4.553 0 0 1 4.0888 0l9.2636 4.9554c.7743.389 1.2635 1.184 1.2635 2.0536v9.0617c0 1.63-.3804 3.4231-1.1429 5.1588C24.5716 28 18.2859 32 16.0001 32c-2.2857 0-8.6422-4-11.4285-10.2857-.7883-1.7782-1.1429-3.6112-1.1429-5.2508V7.4938c0-.8696.4892-1.6646 1.2635-2.0536M16 9.2855c.5523 0 1 .4477 1 1v6.8572c0 .5523-.4477 1-1 1s-1-.4477-1-1v-6.8572c0-.5523.4477-1 1-1m1.1429 12.4285c0 .6312-.5117 1.1429-1.1429 1.1429s-1.1428-.5117-1.1428-1.1429.5117-1.1428 1.1428-1.1428 1.1429.5116 1.1429 1.1428"/></svg>
